X:1
T:Title
%%score { ( 1 4 ) | ( 2 3 ) }
L:1/8
M:6/8
K:Ab
V:1 treble nm="Grand Piano"
V:4 treble 
V:2 bass 
V:3 bass 
V:1
 z3 z2[Q:1/4=100] [CE] | E2 E E>FG | [CA]2 [DB] [Ec]2 [Ec] | [Ec]2 [Fd] [DB]2 [DB] | %4
[M:5/8] z z2 A z |[M:1/8] [A,CF] |[M:3/4] E2 EE- E/F/G |[M:7/8] [EA]2 B c3 [Fd] | %8
[M:3/4] c2 c B2 B | [CA]6 | e2 c .d3 | d2 [GB] [Ac]2 [Ac] | [FB]2 [Fc]d- d/[Ec]/[FB] | %13
 [EA]2 [GB] .c3 | e2 c .d3 |[M:7/8] d2 [GB] [Ac]3 [Ac] |[M:3/4] [FB]2 [Fc]d- d/c/[DFB] | %17
[M:5/8] [CEA]2 [B,DG] [A,CA]2 |] %18
V:2
 z3 z2 [A,,A,] | [E,G,D]2 [E,G,D] [E,D]->[E,A,D][E,B,D] | [A,,A,]2 [A,,A,] [A,,A,]2 [A,,A,] | %3
 [E,G,]2 [E,G,] [E,G,]2 [E,G,] |[M:5/8] [A,,A,]2 [A,,A,] z G |[M:1/8] A,, | %6
[M:3/4] [E,G,D]2 [E,G,D][E,D]- [E,D]/-[E,A,D]/[E,B,D] |[M:7/8] [C,A,]2 [E,G,E] [A,E]3 [D,A,] | %8
[M:3/4] [E,A,E]2 [E,A,E] [E,G,D]2 [E,G,D] | [A,,A,]6 | [CEA]2 [A,EA] .[B,EG]3 | %11
 [B,EG]2[K:bass] [E,E] [A,E]2 [A,E] | [D,D]2 [D,D] [D,B,]2 [D,D] | %13
 [E,C]2 [E,E][K:treble] .[A,EA]3 | [CEA]2 [A,EA] .[B,EG]3 | %15
[M:7/8] [B,EG]2[K:bass] [E,E] [A,E]3 [A,E] |[M:3/4] z2 z .B,3 |[M:5/8] E,2 E, A,,2 |] %18
V:3
 x6 | z3 .G,3 | x6 | x6 |[M:5/8] z z2 [A,,A,]2 |[M:1/8] x |[M:3/4] z2 z .G,3 |[M:7/8] x7 | %8
[M:3/4] x6 | x6 | x6 | x2[K:bass] x4 | x6 | x3[K:treble] x3 | x6 |[M:7/8] x2[K:bass] x5 | %16
[M:3/4] [D,D]2 [D,D]D,- D,/-[D,E]/D, |[M:5/8] x5 |] %18
V:4
 x6 | x6 | x6 | x6 |[M:5/8] [DB]2 [Ec] C2 |[M:1/8] x |[M:3/4] x6 |[M:7/8] x7 |[M:3/4] x6 | x6 | %10
 x6 | x6 | z2 z .F3 | x6 | x6 |[M:7/8] x7 |[M:3/4] z2 z .F3 |[M:5/8] x5 |] %18

